src/app/assets/svg/blue-sky-logo.svg

<?xml version="1.0" encoding="UTF-8"?>
<svg width="201px" height="58px" viewBox="0 0 201 58" version="1.1" xmlns="http://www.w3.org/2000/svg" xmlns:xlink="http://www.w3.org/1999/xlink">
    <title>Blue_Sky_Logo_Color</title>
    <g id="Page-1" stroke="none" stroke-width="1" fill="none" fill-rule="evenodd">
        <g id="Help-Center" transform="translate(-691.000000, -538.000000)" fill-rule="nonzero">
            <g id="Blue_Sky_Logo_Color" transform="translate(691.000000, 538.000000)">
                <path d="M95.1641334,28.2549839 C96.6554367,26.9122429 98.5714932,26.1718646 100.55523,26.1718246 C104.267921,26.1718246 107.970994,28.7140687 107.999849,34.4748434 C108.028704,40.5762294 103.92166,42.9802544 99.5597287,43 C97.3003999,42.9956094 95.0805221,42.3919511 93.1154204,41.2475793 L93,17 L95.1112323,17 L95.1641334,28.2549839 Z M95.1641334,30.510917 L95.2122252,40.2059996 C96.509734,40.8595102 97.9364994,41.1973432 99.3817888,41.1933151 C102.748219,41.1933151 105.883807,39.1545472 105.879004,34.5143345 C105.879004,30.3085248 103.229137,28.008164 100.257061,28.0229022 C98.3073161,28.1237846 96.4774574,29.0193796 95.1737517,30.510917 L95.1641334,30.510917 Z" id="Shape" fill="#4473B9"></path>
                <polygon id="Path" fill="#4473B9" points="111.110375 43 111 17.0298965 112.889625 17 113 42.9900345"></polygon>
                <path d="M119.03609,36.7411168 C119.03609,39.5634518 120.735109,41.0050761 122.680098,40.9949239 C124.693413,40.9949239 126.601962,39.4314721 127.977575,37.1979695 L127.92747,26 L129.92712,26 L130,42.7106599 L128.050456,42.7106599 L127.986685,39.4974619 C126.620182,41.5279188 124.502102,42.9898477 122.201822,43 C119.655571,43 117.06377,41.2639594 117.04555,36.9086294 L117,26.0862944 L118.99965,26.0862944 L119.03609,36.7411168 Z" id="Path" fill="#4473B9"></path>
                <path d="M147.961313,35.2521505 L135.080803,35.2521505 C135.401769,38.8824456 137.727611,41.0026179 141.058216,41.0676232 C143.010085,41.1294726 144.910809,40.3911979 146.37509,39.0024553 L147.45428,40.6625902 C145.598372,42.2238187 143.298081,43.0486531 140.941924,42.99778 C135.922758,42.8777703 132.843343,38.8524431 133.006152,33.9520449 C133.19222,28.871632 136.797274,25.9263927 140.839587,26.0013987 C144.616753,26.0864057 148.426482,28.84663 147.961313,35.2521505 Z M145.96109,33.412001 C146.049472,30.4667616 144.100417,28.0265633 140.844238,27.911554 C137.797386,27.7815434 135.476196,29.7667048 135.09941,33.412001 L145.96109,33.412001 Z" id="Shape" fill="#4473B9"></path>
                <path d="M167.018135,27.6332038 L165.991184,29.3260318 C164.945199,28.4784085 163.670893,27.9968719 162.348865,27.9496672 C160.103008,27.9044582 158.706545,29.1602653 158.711344,30.5215602 C158.711344,32.1390398 160.760449,32.7870363 162.761565,33.3496379 C165.045812,34.0177273 168.107472,35.2132557 167.997098,38.428122 C167.905921,41.4420591 165.141789,43.0394458 162.084928,42.99926 C159.848999,42.9640548 157.695696,42.1090322 156,40.583087 L157.151721,38.9254216 C158.479197,40.2473779 160.229204,41.0048232 162.060934,41.0502473 C164.201217,41.0502473 165.741644,39.9501602 165.732046,38.3879362 C165.722449,36.8257121 164.071648,35.8763219 161.801797,35.1881396 C159.531946,34.4999573 156.523073,33.5807064 156.523073,30.5667693 C156.523073,27.7738542 159.133642,25.9604687 162.24329,26.0006545 C163.95426,26.0377117 165.616157,26.6059247 167.018135,27.6332038 L167.018135,27.6332038 Z" id="Path" fill="#4473B9"></path>
                <polygon id="Path" fill="#4473B9" points="173.137694 33.8931699 173.17528 43 171.112757 43 171 17 173.062523 17 173.132996 32.9318934 180.076979 26.3395602 182.980484 26.3395602 175.37875 33.432769 184 43 181.181063 43"></polygon>
                <path d="M191.426216,46.8486318 C190.171884,49.6294661 188.100335,51.124101 185.468139,50.9919224 L185.468139,48.9584055 C187.430408,49.0041596 188.746506,47.9416471 189.625489,45.9996385 L191.14114,42.6240004 L184,26.0660893 L186.285355,26.0660893 L192.252935,40.0363502 L198.624371,26 L201,26 L191.426216,46.8486318 Z" id="Path" fill="#4473B9"></path>
                <path d="M64.1780891,11 L34.6517302,11.152161 C29.9481032,11.1749422 25.4456476,13.1990579 22.1351982,16.7790703 C18.8247488,20.3590828 16.9775856,25.2016222 17,30.2410131 L17,30.2410131 C17.0227186,35.2808744 18.9130182,40.1047278 22.2552481,43.6513509 C25.597478,47.1979741 30.1178517,49.1768372 34.8219109,49.1526007 L52.653071,49.0614361 L52.6861617,56.0912389 C52.6864233,56.8665613 53.124257,57.5647387 53.7941405,57.8580416 C54.464024,58.1513446 55.2329426,57.9815338 55.7399605,57.4283196 L63.5257295,49.0057245 L64.3482698,49.0057245 C69.0523295,48.981604 73.5547736,46.9563645 76.8650884,43.3755478 C80.1754031,39.7947312 82.0224162,34.9516684 82,29.9118077 L82,29.9118077 C81.9772813,24.8719464 80.0869817,20.048093 76.7447518,16.5014698 C73.4025219,12.9548467 68.8821482,10.9759836 64.1780891,11 Z" id="Path" fill="#67CBE4" style="mix-blend-mode: multiply;"></path>
                <path d="M43.4071268,18.8671156 L43.1962766,18.8671156 C43.3141562,18.008939 43.3721163,17.1419839 43.3696423,16.2739492 C43.2234582,7.97091604 37.555211,1.06564647 30.1021973,0.111054135 C22.6491835,-0.843538195 15.7060286,4.44644551 13.8506254,12.4931126 C12.5499715,11.8060084 11.1263538,11.4515048 9.68516411,11.4558461 C4.31038168,11.4844894 -0.0257623978,16.330504 0,22.2797226 C0.0259928494,28.2289412 4.40409285,33.0285158 9.77887527,33 L43.4586679,32.8702141 C45.7765932,32.955839 47.9512469,31.6315737 49.1267066,29.4186361 C50.3021663,27.2056984 50.2902159,24.4584269 49.095559,22.2581205 C47.900902,20.0578142 45.7148286,18.756789 43.3977556,18.8671156 L43.4071268,18.8671156 Z" id="Path" fill="#67CBE4" style="mix-blend-mode: multiply;"></path>
            </g>
        </g>
    </g>
</svg>

<svg xmlns="http://www.w3.org/2000/svg" width="201" height="58"><defs/><g fill="none" fill-rule="nonzero"><path fill="#4473B9" d="M95.164 28.255a8.055 8.055 0 015.391-2.083c3.713 0 7.416 2.542 7.445 8.303.029 6.101-4.078 8.505-8.44 8.525a12.85 12.85 0 01-6.445-1.752L93 17h2.111l.053 11.255zm0 2.256l.048 9.695a9.208 9.208 0 004.17.987c3.366 0 6.502-2.038 6.497-6.679 0-4.205-2.65-6.506-5.622-6.491-1.95.1-3.78.996-5.083 2.488h-.01zM111.11 43L111 17.03l1.89-.03.11 25.99zM119.036 36.741c0 2.822 1.7 4.264 3.644 4.254 2.013 0 3.922-1.564 5.298-3.797L127.928 26h2L130 42.71h-1.95l-.063-3.213c-1.367 2.03-3.485 3.493-5.785 3.503-2.546 0-5.138-1.736-5.156-6.091L117 26.086h2l.036 10.655zM147.961 35.252h-12.88c.32 3.63 2.647 5.75 5.977 5.816 1.952.061 3.853-.677 5.317-2.066l1.08 1.66c-1.857 1.562-4.157 2.387-6.513 2.336-5.02-.12-8.099-4.146-7.936-9.046.186-5.08 3.791-8.026 7.834-7.95 3.777.084 7.586 2.845 7.121 9.25zm-2-1.84c.088-2.945-1.86-5.385-5.117-5.5-3.047-.13-5.368 1.855-5.745 5.5h10.862zM167.018 27.633l-1.027 1.693a6.13 6.13 0 00-3.642-1.376c-2.246-.046-3.642 1.21-3.638 2.572 0 1.617 2.05 2.265 4.05 2.828 2.285.668 5.346 1.863 5.236 5.078-.091 3.014-2.855 4.611-5.912 4.571-2.236-.035-4.39-.89-6.085-2.416l1.152-1.658c1.327 1.322 3.077 2.08 4.909 2.125 2.14 0 3.68-1.1 3.671-2.662-.01-1.562-1.66-2.512-3.93-3.2-2.27-.688-5.279-1.607-5.279-4.621 0-2.793 2.61-4.607 5.72-4.566a8.38 8.38 0 014.775 1.632zM173.138 33.893l.037 9.107h-2.062L171 17h2.063l.07 15.932 6.944-6.592h2.903l-7.601 7.093L184 43h-2.819zM191.426 46.849c-1.254 2.78-3.326 4.275-5.958 4.143v-2.034c1.962.046 3.279-1.016 4.157-2.958l1.516-3.376L184 26.066h2.285l5.968 13.97L198.624 26H201l-9.574 20.849z"/><path fill="#67CBE4" d="M64.178 11l-29.526.152c-4.704.023-9.206 2.047-12.517 5.627-3.31 3.58-5.157 8.423-5.135 13.462.023 5.04 1.913 9.864 5.255 13.41 3.342 3.547 7.863 5.526 12.567 5.502l17.831-.092.033 7.03c0 .776.438 1.474 1.108 1.767.67.293 1.439.124 1.946-.43l7.786-8.422h.822c4.704-.024 9.207-2.05 12.517-5.63 3.31-3.581 5.157-8.424 5.135-13.464-.023-5.04-1.913-9.864-5.255-13.41-3.342-3.547-7.863-5.526-12.567-5.502z" style="mix-blend-mode:multiply"/><path fill="#67CBE4" d="M43.407 18.867h-.21a18.67 18.67 0 00.173-2.593C43.223 7.97 37.555 1.066 30.102.11 22.65-.844 15.706 4.446 13.851 12.493a8.846 8.846 0 00-4.166-1.037C4.31 11.484-.025 16.33 0 22.28.026 28.229 4.404 33.029 9.779 33l33.68-.13c2.318.086 4.492-1.238 5.668-3.451 1.175-2.213 1.163-4.96-.031-7.16-1.195-2.201-3.381-3.502-5.698-3.392h.01z" style="mix-blend-mode:multiply"/></g></svg>
